;FLAVOR:Marlin
;TIME:2099
;Filament used: 1.11783m
;Layer height: 0.2
;MINX:123.5
;MINY:127
;MINZ:0.2
;MAXX:176.499
;MAXY:173
;MAXZ:6.6
;Generated with Cura_SteamEngine 4.13.1
M140 S50
M105
M190 S50
M104 S200
M105
M109 S200
M82 ;absolute extrusion mode
M201 X500.00 Y500.00 Z100.00 E5000.00 ;Setup machine max acceleration
M203 X500.00 Y500.00 Z10.00 E50.00 ;Setup machine max feedrate
M204 P500.00 R1000.00 T500.00 ;Setup Print/Retract/Travel acceleration
M205 X8.00 Y8.00 Z0.40 E5.00 ;Setup Jerk
M220 S100 ;Reset Feedrate
M221 S100 ;Reset Flowrate

G28 ;Home

G92 E0 ;Reset Extruder
G1 Z2.0 F3000 ;Move Z Axis up
G1 X10.1 Y20 Z0.28 F5000.0 ;Move to start position
G1 X10.1 Y200.0 Z0.28 F1500.0 E15 ;Draw the first line
G1 X10.4 Y200.0 Z0.28 F5000.0 ;Move to side a little
G1 X10.4 Y20 Z0.28 F1500.0 E30 ;Draw the second line
G92 E0 ;Reset Extruder
G1 Z2.0 F3000 ;Move Z Axis up

G92 E0
G92 E0
G1 F2700 E-5
;LAYER_COUNT:33
;LAYER:0
M107
G0 F6000 X127.474 Y130.685 Z0.2
;TYPE:SKIRT
G1 F2700 E0
G1 F1200 X127.638 Y130.525 E0.00762
G1 X128.337 Y129.9 E0.03881
G1 X129.086 Y129.336 E0.06999
G1 X130.171 Y128.679 E0.11218
G1 X130.524 Y128.492 E0.12547
G1 X130.811 Y128.345 E0.13619
G1 X131.018 Y128.243 E0.14387
G1 X131.876 Y127.865 E0.17505
G1 X132.763 Y127.561 E0.20624
G1 X133.986 Y127.274 E0.24802
G1 X134.335 Y127.213 E0.2598
G1 X134.668 Y127.16 E0.27102
G1 X134.94 Y127.121 E0.28016
G1 X136.17 Y127.015 E0.32122
G1 X136.469 Y127.006 E0.33117
G1 X136.8 Y127.001 E0.34218
G1 X162.793 Y127 E1.20671
G1 X163.649 Y127.011 E1.23518
G1 X164.823 Y127.091 E1.27432
G1 X165.028 Y127.116 E1.28119
G1 X165.602 Y127.201 E1.30049
G1 X166.017 Y127.274 E1.3145
G1 X166.933 Y127.476 E1.3457
G1 X167.828 Y127.755 E1.37688
G1 X168.945 Y128.227 E1.41721
G1 X169.27 Y128.386 E1.42925
G1 X169.559 Y128.533 E1.44003
G1 X169.787 Y128.653 E1.4486
G1 X170.598 Y129.125 E1.47981
G1 X171.365 Y129.664 E1.51099
G1 X172.326 Y130.494 E1.55323
G1 X172.6 Y130.76 E1.56593
G1 X172.81 Y130.97 E1.5758
G1 X172.973 Y131.137 E1.58357
G1 X173.599 Y131.835 E1.61475
G1 X174.163 Y132.584 E1.64594
G1 X174.821 Y133.671 E1.6882
G1 X175.008 Y134.024 E1.70148
G1 X175.155 Y134.311 E1.71221
G1 X175.257 Y134.518 E1.71988
G1 X175.635 Y135.376 E1.75107
G1 X175.939 Y136.263 E1.78225
G1 X176.226 Y137.486 E1.82404
G1 X176.287 Y137.835 E1.83582
G1 X176.333 Y138.121 E1.84545
G1 X176.372 Y138.385 E1.85433
G1 X176.485 Y139.671 E1.89727
G1 X176.494 Y139.978 E1.90748
G1 X176.499 Y140.299 E1.91816
G1 X176.499 Y158.936 E2.53803
G1 X176.488 Y159.675 E2.56261
G1 X176.398 Y160.922 E2.6042
G1 X176.368 Y161.154 E2.61198
G1 X176.299 Y161.613 E2.62741
G1 X176.21 Y162.129 E2.64483
G1 X176.011 Y163.045 E2.67601
G1 X175.735 Y163.942 E2.70722
G1 X175.25 Y165.094 E2.74879
G1 X175.043 Y165.517 E2.76446
G1 X174.902 Y165.797 E2.77488
G1 X174.756 Y166.075 E2.78533
G1 X174.285 Y166.886 E2.81652
G1 X173.746 Y167.653 E2.8477
G1 X172.896 Y168.637 E2.89095
G1 X172.592 Y168.949 E2.90544
G1 X172.376 Y169.163 E2.91555
G1 X172.134 Y169.398 E2.92677
G1 X171.434 Y170.023 E2.95798
G1 X170.683 Y170.585 E2.98918
G1 X169.639 Y171.218 E3.02979
G1 X169.235 Y171.433 E3.04501
G1 X168.931 Y171.588 E3.05636
G1 X168.643 Y171.73 E3.06704
G1 X167.785 Y172.108 E3.09822
G1 X166.898 Y172.413 E3.12942
G1 X165.671 Y172.7 E3.17133
G1 X165.207 Y172.781 E3.187
G1 X164.838 Y172.839 E3.19942
G1 X164.509 Y172.885 E3.21047
G1 X163.295 Y172.987 E3.25099
G1 X162.975 Y172.996 E3.26164
G1 X162.666 Y173 E3.27192
G1 X137.538 Y172.999 E4.10768
G1 X136.821 Y172.988 E4.13153
G1 X135.585 Y172.899 E4.17274
G1 X135.352 Y172.869 E4.18056
G1 X134.887 Y172.799 E4.1962
G1 X134.371 Y172.71 E4.21361
G1 X133.455 Y172.511 E4.24479
G1 X132.558 Y172.235 E4.276
G1 X131.404 Y171.749 E4.31765
G1 X130.971 Y171.537 E4.33369
G1 X130.686 Y171.393 E4.34431
G1 X130.418 Y171.252 E4.35438
G1 X129.608 Y170.78 E4.38556
G1 X128.84 Y170.241 E4.41677
G1 X127.863 Y169.395 E4.45975
G1 X127.55 Y169.09 E4.47429
G1 X127.336 Y168.875 E4.48438
G1 X127.101 Y168.633 E4.4956
G1 X126.476 Y167.933 E4.52681
G1 X125.914 Y167.182 E4.55801
G1 X125.273 Y166.121 E4.59923
G1 X125.052 Y165.704 E4.61493
G1 X124.904 Y165.415 E4.62573
G1 X124.769 Y165.141 E4.63589
G1 X124.39 Y164.282 E4.66712
G1 X124.087 Y163.395 E4.69829
G1 X123.799 Y162.166 E4.74028
G1 X123.717 Y161.695 E4.75618
G1 X123.66 Y161.33 E4.76847
G1 X123.615 Y161.008 E4.77928
G1 X123.513 Y159.796 E4.81973
G1 X123.504 Y159.477 E4.83035
G1 X123.5 Y159.167 E4.84066
G1 X123.501 Y140.51 E5.46119
G1 X123.511 Y139.84 E5.48348
G1 X123.595 Y138.64 E5.52349
G1 X123.62 Y138.44 E5.53019
G1 X123.696 Y137.931 E5.54731
G1 X123.767 Y137.52 E5.56118
G1 X123.965 Y136.604 E5.59235
G1 X124.242 Y135.708 E5.62355
G1 X124.727 Y134.555 E5.66515
G1 X124.893 Y134.216 E5.6777
G1 X125.043 Y133.922 E5.68868
G1 X125.158 Y133.704 E5.69688
G1 X125.63 Y132.893 E5.72809
G1 X126.17 Y132.127 E5.75926
G1 X126.996 Y131.173 E5.80123
G1 X127.265 Y130.896 E5.81407
G1 X127.474 Y130.685 E5.82395
G0 F6000 X127.754 Y130.972
G1 F1200 X127.918 Y130.812 E5.83157
G1 X128.604 Y130.198 E5.86219
G1 X129.341 Y129.646 E5.89282
G1 X130.358 Y129.032 E5.93233
G1 X130.711 Y128.845 E5.94562
G1 X130.988 Y128.704 E5.95596
G1 X131.195 Y128.602 E5.96363
G1 X132.037 Y128.231 E5.99423
G1 X132.909 Y127.935 E6.02486
G1 X134.055 Y127.668 E6.064
G1 X134.404 Y127.607 E6.07578
G1 X134.725 Y127.556 E6.08659
G1 X134.997 Y127.517 E6.09573
G1 X136.182 Y127.415 E6.13529
G1 X136.481 Y127.406 E6.14524
G1 X136.8 Y127.401 E6.15585
G1 X162.793 Y127.4 E7.02038
G1 X163.643 Y127.411 E7.04866
G1 X164.774 Y127.488 E7.08636
G1 X164.979 Y127.513 E7.09323
G1 X165.532 Y127.595 E7.11182
G1 X165.947 Y127.668 E7.12584
G1 X166.846 Y127.867 E7.15646
G1 X167.725 Y128.143 E7.18711
G1 X168.769 Y128.586 E7.22483
G1 X169.094 Y128.745 E7.23686
G1 X169.373 Y128.887 E7.24727
G1 X169.601 Y129.007 E7.25584
G1 X170.396 Y129.471 E7.28646
G1 X171.148 Y130.002 E7.31708
G1 X172.047 Y130.781 E7.35664
G1 X172.321 Y131.047 E7.36934
G1 X172.524 Y131.249 E7.37887
G1 X172.687 Y131.416 E7.38663
G1 X173.3 Y132.102 E7.41723
G1 X173.852 Y132.839 E7.44785
G1 X174.468 Y133.858 E7.48746
G1 X174.655 Y134.211 E7.50074
G1 X174.796 Y134.488 E7.51108
G1 X174.898 Y134.695 E7.51876
G1 X175.269 Y135.537 E7.54936
G1 X175.565 Y136.409 E7.57999
G1 X175.832 Y137.555 E7.61913
G1 X175.893 Y137.904 E7.63091
G1 X175.937 Y138.18 E7.64021
G1 X175.976 Y138.444 E7.64908
G1 X176.085 Y139.682 E7.69042
G1 X176.094 Y139.989 E7.70063
G1 X176.099 Y140.299 E7.71094
G1 X176.099 Y158.93 E8.33061
G1 X176.088 Y159.669 E8.3552
G1 X176.001 Y160.87 E8.39525
G1 X175.971 Y161.102 E8.40303
G1 X175.905 Y161.545 E8.41792
G1 X175.816 Y162.061 E8.43534
G1 X175.62 Y162.96 E8.46594
G1 X175.347 Y163.84 E8.49659
G1 X174.891 Y164.918 E8.53552
G1 X174.684 Y165.341 E8.55118
G1 X174.548 Y165.611 E8.56124
G1 X174.402 Y165.889 E8.57168
G1 X173.938 Y166.684 E8.6023
G1 X173.408 Y167.437 E8.63292
G1 X172.609 Y168.357 E8.67345
G1 X172.305 Y168.669 E8.68794
G1 X172.098 Y168.877 E8.6977
G1 X171.856 Y169.112 E8.70892
G1 X171.168 Y169.724 E8.73955
G1 X170.43 Y170.274 E8.77016
G1 X169.451 Y170.864 E8.80818
G1 X169.047 Y171.079 E8.8234
G1 X168.755 Y171.229 E8.83432
G1 X168.467 Y171.371 E8.845
G1 X167.624 Y171.742 E8.87563
G1 X166.752 Y172.038 E8.90626
G1 X165.602 Y172.306 E8.94553
G1 X165.138 Y172.387 E8.9612
G1 X164.783 Y172.443 E8.97315
G1 X164.454 Y172.489 E8.9842
G1 X163.284 Y172.587 E9.02325
G1 X162.964 Y172.596 E9.0339
G1 X162.666 Y172.6 E9.04381
G1 X137.544 Y172.599 E9.87937
G1 X136.827 Y172.588 E9.90322
G1 X135.636 Y172.502 E9.94294
G1 X135.403 Y172.472 E9.95075
G1 X134.955 Y172.405 E9.96582
G1 X134.439 Y172.316 E9.98323
G1 X133.54 Y172.12 E10.01384
G1 X132.66 Y171.847 E10.04448
G1 X131.58 Y171.39 E10.08349
G1 X131.147 Y171.178 E10.09952
G1 X130.873 Y171.039 E10.10974
G1 X130.605 Y170.898 E10.11981
G1 X129.809 Y170.434 E10.15046
G1 X129.057 Y169.903 E10.18108
G1 X128.142 Y169.109 E10.22137
G1 X127.829 Y168.804 E10.2359
G1 X127.622 Y168.597 E10.24564
G1 X127.387 Y168.355 E10.25686
G1 X126.775 Y167.667 E10.28749
G1 X126.225 Y166.929 E10.3181
G1 X125.626 Y165.934 E10.35673
G1 X125.405 Y165.517 E10.37242
G1 X125.262 Y165.238 E10.38285
G1 X125.127 Y164.964 E10.39301
G1 X124.757 Y164.121 E10.42363
G1 X124.461 Y163.249 E10.45426
G1 X124.193 Y162.097 E10.4936
G1 X124.111 Y161.626 E10.5095
G1 X124.056 Y161.275 E10.52132
G1 X124.011 Y160.953 E10.53213
G1 X123.913 Y159.785 E10.57111
G1 X123.904 Y159.466 E10.58173
G1 X123.9 Y159.167 E10.59167
G1 X123.901 Y140.516 E11.21201
G1 X123.911 Y139.846 E11.2343
G1 X123.992 Y138.689 E11.27287
G1 X124.017 Y138.489 E11.27958
G1 X124.09 Y138 E11.29602
G1 X124.161 Y137.589 E11.30989
G1 X124.357 Y136.689 E11.34053
G1 X124.63 Y135.81 E11.37114
G1 X125.086 Y134.731 E11.4101
G1 X125.252 Y134.392 E11.42266
G1 X125.397 Y134.108 E11.43326
G1 X125.512 Y133.89 E11.44146
G1 X125.976 Y133.095 E11.47208
G1 X126.508 Y132.344 E11.50269
G1 X127.283 Y131.451 E11.54201
G1 X127.552 Y131.174 E11.55486
G1 X127.754 Y130.972 E11.56436
G0 F6000 X128.033 Y131.258
G1 F1200 X128.197 Y131.098 E11.57198
G1 X128.871 Y130.497 E11.60201
G1 X129.595 Y129.957 E11.63205
G1 X130.545 Y129.386 E11.66892
G1 X130.898 Y129.199 E11.68221
G1 X131.165 Y129.062 E11.69219
G1 X131.372 Y128.96 E11.69986
G1 X132.199 Y128.598 E11.72989
G1 X133.054 Y128.309 E11.75991
G1 X134.124 Y128.062 E11.79643
G1 X134.473 Y128.001 E11.80821
G1 X134.781 Y127.952 E11.81859
G1 X135.053 Y127.913 E11.82773
G1 X136.194 Y127.815 E11.86582
G1 X136.493 Y127.806 E11.87577
G1 X136.8 Y127.801 E11.88598
G1 X162.793 Y127.8 E12.75051
G1 X163.637 Y127.811 E12.77858
G1 X164.726 Y127.885 E12.81489
G1 X164.931 Y127.91 E12.82176
G1 X165.463 Y127.989 E12.83964
G1 X165.878 Y128.062 E12.85366
G1 X166.76 Y128.258 E12.88371
G1 X167.621 Y128.531 E12.91375
G1 X168.593 Y128.946 E12.9489
G1 X168.918 Y129.105 E12.96094
G1 X169.187 Y129.241 E12.97096
G1 X169.415 Y129.361 E12.97953
G1 X170.194 Y129.816 E13.00954
G1 X170.931 Y130.339 E13.0396
G1 X171.769 Y131.068 E13.07654
G1 X172.043 Y131.334 E13.08924
G1 X172.237 Y131.528 E13.09836
G1 X172.4 Y131.695 E13.10613
G1 X173.002 Y132.369 E13.13618
G1 X173.542 Y133.093 E13.16622
G1 X174.114 Y134.045 E13.20316
G1 X174.301 Y134.398 E13.21645
G1 X174.438 Y134.665 E13.22643
G1 X174.54 Y134.872 E13.23411
G1 X174.902 Y135.699 E13.26413
G1 X175.191 Y136.554 E13.29415
G1 X175.438 Y137.624 E13.33067
G1 X175.499 Y137.973 E13.34246
G1 X175.58 Y138.502 E13.36026
G1 X175.686 Y139.694 E13.40006
G1 X175.695 Y140.001 E13.41028
G1 X175.699 Y140.299 E13.42019
G1 X175.699 Y158.924 E14.03966
G1 X175.688 Y159.663 E14.06424
G1 X175.605 Y160.819 E14.10279
G1 X175.575 Y161.051 E14.11057
G1 X175.511 Y161.477 E14.1249
G1 X175.422 Y161.993 E14.14231
G1 X175.229 Y162.875 E14.17234
G1 X174.959 Y163.737 E14.20239
G1 X174.532 Y164.742 E14.2387
G1 X174.325 Y165.165 E14.25437
G1 X174.193 Y165.425 E14.26407
G1 X174.047 Y165.703 E14.27451
G1 X173.592 Y166.483 E14.30454
G1 X173.07 Y167.22 E14.33458
G1 X172.323 Y168.078 E14.37242
G1 X172.019 Y168.39 E14.38691
G1 X171.819 Y168.59 E14.39632
G1 X171.577 Y168.825 E14.40753
G1 X170.902 Y169.424 E14.43755
G1 X170.176 Y169.962 E14.46761
G1 X169.263 Y170.511 E14.50304
G1 X168.859 Y170.726 E14.51826
G1 X168.578 Y170.87 E14.52876
G1 X168.29 Y171.012 E14.53944
G1 X167.463 Y171.376 E14.56949
G1 X166.607 Y171.664 E14.59953
G1 X165.533 Y171.912 E14.63619
G1 X165.069 Y171.993 E14.65186
G1 X164.727 Y172.047 E14.66338
G1 X164.398 Y172.093 E14.67443
G1 X163.273 Y172.187 E14.71197
G1 X162.953 Y172.196 E14.72262
G1 X162.666 Y172.2 E14.73217
G1 X137.551 Y172.199 E15.5675
G1 X136.834 Y172.188 E15.59135
G1 X135.687 Y172.105 E15.6296
G1 X135.454 Y172.075 E15.63741
G1 X135.023 Y172.011 E15.6519
G1 X134.507 Y171.922 E15.66932
G1 X133.625 Y171.729 E15.69935
G1 X132.763 Y171.459 E15.72939
G1 X131.756 Y171.031 E15.76578
G1 X131.323 Y170.819 E15.78182
G1 X131.059 Y170.685 E15.79167
G1 X130.791 Y170.544 E15.80174
G1 X130.011 Y170.088 E15.83179
G1 X129.274 Y169.566 E15.86183
G1 X128.421 Y168.822 E15.89947
G1 X128.108 Y168.517 E15.91401
G1 X127.909 Y168.318 E15.92337
G1 X127.674 Y168.076 E15.93459
G1 X127.075 Y167.401 E15.9646
G1 X126.537 Y166.675 E15.99466
G1 X125.979 Y165.746 E16.0307
G1 X125.758 Y165.329 E16.0464
G1 X125.621 Y165.061 E16.05641
G1 X125.486 Y164.787 E16.06657
G1 X125.123 Y163.96 E16.09661
G1 X124.835 Y163.104 E16.12665
G1 X124.587 Y162.028 E16.16337
G1 X124.505 Y161.557 E16.17928
G1 X124.452 Y161.22 E16.19062
G1 X124.407 Y160.898 E16.20144
G1 X124.313 Y159.774 E16.23895
G1 X124.304 Y159.455 E16.24956
G1 X124.3 Y159.167 E16.25914
G1 X124.301 Y140.522 E16.87928
G1 X124.311 Y139.852 E16.90157
G1 X124.389 Y138.739 E16.93868
G1 X124.414 Y138.539 E16.94538
G1 X124.484 Y138.068 E16.96122
G1 X124.555 Y137.657 E16.97509
G1 X124.748 Y136.774 E17.00515
G1 X125.018 Y135.913 E17.03516
G1 X125.445 Y134.907 E17.07151
G1 X125.611 Y134.568 E17.08407
G1 X125.75 Y134.295 E17.09426
G1 X125.865 Y134.077 E17.10245
G1 X126.322 Y133.298 E17.13249
G1 X126.845 Y132.562 E17.16252
G1 X127.57 Y131.73 E17.19923
G1 X127.839 Y131.453 E17.21207
G1 X128.033 Y131.258 E17.22122
G1 F2700 E12.22122
;MESH:Screw-Holder.stl
G0 F6000 X133.848 Y139.867
G0 X134.919 Y140.037
G0 X135.271 Y159.441
G0 X135.364 Y160.033
G0 X135.561 Y160.42
G0 X136.413 Y161.3
;TYPE:WALL-INNER
G1 F2700 E17.22122
G1 F1200 X135.888 Y161.032 E17.24082
G1 X135.468 Y160.612 E17.26058
G1 X135.2 Y160.087 E17.28019
G1 X135.1 Y159.452 E17.30157
G1 X135.1 Y140.049 E17.94691
G1 X135.176 Y139.568 E17.96311
G1 X135.374 Y139.18 E17.9776
G1 X135.68 Y138.874 E17.99199
G1 X136.068 Y138.676 E18.00648
G1 X136.549 Y138.6 E18.02267
G1 X163.451 Y138.6 E18.91744
G1 X163.932 Y138.676 E18.93364
G1 X164.32 Y138.874 E18.94812
G1 X164.626 Y139.18 E18.96252
G1 X164.824 Y139.568 E18.97701
G1 X164.9 Y140.049 E18.9932
G1 X164.9 Y159.452 E19.63855
G1 X164.8 Y160.087 E19.65993
G1 X164.532 Y160.612 E19.67953
G1 X164.112 Y161.032 E19.69929
G1 X163.587 Y161.3 E19.71889
G1 X162.952 Y161.4 E19.74027
G1 X137.048 Y161.4 E20.60185
G1 X136.413 Y161.3 E20.62323
G0 F6000 X136.288 Y161.685
;TYPE:WALL-OUTER
G1 F1200 X135.649 Y161.359 E20.64709
G1 X135.141 Y160.851 E20.67098
G1 X134.815 Y160.212 E20.69484
G1 X134.7 Y159.482 E20.71942
G1 X134.7 Y140.018 E21.36679
G1 X134.791 Y139.443 E21.38616
G1 X135.047 Y138.941 E21.4049
G1 X135.441 Y138.547 E21.42343
G1 X135.943 Y138.291 E21.44217
G1 X136.518 Y138.2 E21.46154
G1 X163.482 Y138.2 E22.35836
G1 X164.057 Y138.291 E22.37773
G1 X164.559 Y138.547 E22.39647
G1 X164.953 Y138.941 E22.415
G1 X165.209 Y139.443 E22.43374
G1 X165.3 Y140.018 E22.4531
G1 X165.3 Y159.482 E23.10048
G1 X165.185 Y160.212 E23.12506
G1 X164.859 Y160.851 E23.14892
G1 X164.351 Y161.359 E23.17281
G1 X163.712 Y161.685 E23.19667
G1 X162.982 Y161.8 E23.22125
G1 X137.018 Y161.8 E24.08482
G1 X136.288 Y161.685 E24.1094
G0 F6000 X136.423 Y161.267
G0 X136.532 Y160.923
;TYPE:SKIN
G1 F1200 X136.119 Y160.713 E24.12481
G1 X135.787 Y160.381 E24.14042
G1 X135.577 Y159.968 E24.15583
G1 X135.49 Y159.418 E24.17435
G1 X135.49 Y140.084 E24.81741
G1 X135.553 Y139.686 E24.83081
G1 X135.693 Y139.411 E24.84107
G1 X135.911 Y139.193 E24.85133
G1 X136.186 Y139.053 E24.86159
G1 X136.584 Y138.99 E24.87499
G1 X163.416 Y138.99 E25.76743
G1 X163.814 Y139.053 E25.78083
G1 X164.089 Y139.193 E25.79109
G1 X164.307 Y139.411 E25.80135
G1 X164.447 Y139.686 E25.81161
G1 X164.51 Y140.084 E25.82501
G1 X164.51 Y159.418 E26.46807
G1 X164.423 Y159.968 E26.48659
G1 X164.213 Y160.381 E26.502
G1 X163.881 Y160.713 E26.51761
G1 X163.468 Y160.923 E26.53302
G1 X162.918 Y161.01 E26.55154
G1 X137.082 Y161.01 E27.41085
G1 X136.532 Y160.923 E27.42937
G0 F6000 X136.301 Y160.625
G1 F1200 X135.872 Y160.197 E27.44953
G0 F6000 X135.65 Y159.409
G1 F1200 X137.088 Y160.847 E27.51717
G0 F6000 X137.656 Y160.849
G1 F1200 X135.649 Y158.843 E27.61155
G0 F6000 X135.649 Y158.277
G1 F1200 X138.221 Y160.849 E27.73253
G0 F6000 X138.787 Y160.849
G1 F1200 X135.649 Y157.711 E27.88013
G0 F6000 X135.649 Y157.145
G1 F1200 X139.353 Y160.849 E28.05435
G0 F6000 X139.918 Y160.849
G1 F1200 X135.649 Y156.58 E28.25515
G0 F6000 X135.649 Y156.014
G1 F1200 X140.484 Y160.849 E28.48258
G0 F6000 X141.05 Y160.849
